src/main/webapp/scripts/pdfjs/v54530/web/images/secondaryToolbarButton-firstPage.svg

<svg fill="none" height="16" viewBox="0 0 16 16" width="16" xmlns="http://www.w3.org/2000/svg"><path d="m14 3.5h-12v1.5h12zm-6 5.311 4.939 4.939 1.062-1.061-5.47-5.47c-.293-.293-.768-.293-1.061 0l-5.47 5.47 1.061 1.061z" fill="#000"/></svg>

<svg width="16" height="16" viewBox="0 0 16 16" fill="none" xmlns="http://www.w3.org/2000/svg">
<path d="M14 3.5H2V5H14V3.5ZM8 8.811L12.939 13.75L14.001 12.689L8.531 7.219C8.238 6.926 7.763 6.926 7.47 7.219L2 12.689L3.061 13.75L8 8.811Z" fill="black"/>
</svg>
